images/direction-3.svg

<svg width="146" height="137" viewBox="0 0 146 137" fill="none" xmlns="http://www.w3.org/2000/svg">
<path opacity="0.5" d="M6 18.6098L114.142 1L117 3.31707L116.524 20H17.9099L6 18.6098Z" fill="#2A94E2"/>
<path d="M133.32 103.216V131.561C133.32 133.951 131.281 136 128.841 136H5.42262C3.04105 136 1 133.953 1 131.561V130.764V24.6769V23.9362C1 21.4883 2.98464 19.1553 5.3662 18.7567L112.682 1.05636C113.024 1 113.248 1 113.532 1C115.519 1.11273 116.991 2.70703 116.991 4.81263V20.2363M133.32 103.216H140.577C143.017 103.216 145 101.167 145 98.7776V57.4587C145 55.0109 143.017 52.9636 140.577 52.9636H133.32M133.32 103.216H79.0073C76.5713 103.216 74.5847 101.169 74.5847 98.7776V57.4587C74.5847 55.0129 76.5713 52.9636 79.0073 52.9636H133.32M133.32 52.9636V24.6769C133.32 22.2291 131.281 20.2363 128.841 20.2363H116.991M116.991 20.2363H2.90728M99.4763 70.662C95.3357 70.662 91.9911 74.0197 91.9911 78.1181C91.9911 82.2709 95.3357 85.6286 99.4763 85.6286C103.556 85.6286 107.072 82.2709 107.072 78.1181C107.07 74.0197 103.556 70.662 99.4763 70.662Z" stroke="black" stroke-width="1.8"/>
</svg>

<svg width="146" height="137" fill="none" xmlns="http://www.w3.org/2000/svg"><path opacity=".5" d="M6 18.61L114.142 1 117 3.317 116.524 20H17.91L6 18.61z" fill="#2A94E2"/><path d="M133.32 103.216v28.345c0 2.39-2.039 4.439-4.479 4.439H5.423C3.04 136 1 133.953 1 131.561V23.937c0-2.449 1.985-4.782 4.366-5.18l107.316-17.7c.342-.057.566-.057.85-.057 1.987.113 3.459 1.707 3.459 3.813v15.423m16.329 82.98h7.257c2.44 0 4.423-2.049 4.423-4.438v-41.32c0-2.447-1.983-4.494-4.423-4.494h-7.257m0 50.252H79.007c-2.436 0-4.422-2.047-4.422-4.438v-41.32c0-2.445 1.986-4.494 4.422-4.494h54.313m0 0V24.677c0-2.448-2.039-4.44-4.479-4.44h-11.85m0 0H2.907m96.57 50.425c-4.141 0-7.486 3.358-7.486 7.456 0 4.153 3.345 7.51 7.485 7.51 4.08 0 7.596-3.357 7.596-7.51-.002-4.098-3.516-7.456-7.596-7.456z" stroke="#000" stroke-width="1.8"/></svg>
